icons/midnadark/emblems/8/emblem-unavailable.svg

<?xml version="1.0" encoding="UTF-8" standalone="no"?>
<!-- Created with Inkscape (http://www.inkscape.org/) -->

<svg
   xmlns:sketch="http://www.bohemiancoding.com/sketch/ns"
   xmlns:dc="http://purl.org/dc/elements/1.1/"
   xmlns:cc="http://creativecommons.org/ns#"
   xmlns:rdf="http://www.w3.org/1999/02/22-rdf-syntax-ns#"
   xmlns:svg="http://www.w3.org/2000/svg"
   xmlns="http://www.w3.org/2000/svg"
   xmlns:sodipodi="http://sodipodi.sourceforge.net/DTD/sodipodi-0.dtd"
   xmlns:inkscape="http://www.inkscape.org/namespaces/inkscape"
   width="8"
   height="8"
   id="svg2"
   version="1.1"
   inkscape:version="0.91 r13725"
   viewBox="0 0 8 8"
   sodipodi:docname="emblem-unavailable.svg">
  <defs
     id="defs4" />
  <sodipodi:namedview
     id="base"
     pagecolor="#ffffff"
     bordercolor="#666666"
     borderopacity="1.0"
     inkscape:pageopacity="0.0"
     inkscape:pageshadow="2"
     inkscape:zoom="65.053824"
     inkscape:cx="1.7272034"
     inkscape:cy="3.809638"
     inkscape:document-units="px"
     inkscape:current-layer="layer1"
     showgrid="true"
     inkscape:showpageshadow="false"
     borderlayer="true"
     units="px"
     inkscape:window-width="1366"
     inkscape:window-height="633"
     inkscape:window-x="0"
     inkscape:window-y="33"
     inkscape:window-maximized="1"
     inkscape:snap-bbox="true"
     showguides="false"
     fit-margin-top="0"
     fit-margin-left="0"
     fit-margin-right="0"
     fit-margin-bottom="0">
    <inkscape:grid
       type="xygrid"
       id="grid4062"
       originx="-7"
       originy="-7.0000174" />
  </sodipodi:namedview>
  <metadata
     id="metadata7">
    <rdf:RDF>
      <cc:Work
         rdf:about="">
        <dc:format>image/svg+xml</dc:format>
        <dc:type
           rdf:resource="http://purl.org/dc/dcmitype/StillImage" />
        <dc:title />
      </cc:Work>
    </rdf:RDF>
  </metadata>
  <g
     inkscape:label="Capa 1"
     inkscape:groupmode="layer"
     id="layer1"
     transform="translate(-7,-1037.3622)">
    <path
       style="opacity:1;fill:#ffffff;fill-opacity:1;stroke:none"
       d="M 1 0 C 0.44598072 0 0 0.44598072 0 1 L 0 7 C 0 7.5540193 0.44598072 8 1 8 L 7 8 C 7.5540193 8 8 7.5540193 8 7 L 8 1 C 8 0.44598072 7.5540193 0 7 0 L 1 0 z M 2.5253906 1.6386719 C 2.6345568 1.6386719 2.7263733 1.677495 2.8027344 1.7539062 L 4.0058594 2.9570312 L 5.2089844 1.7539062 C 5.2853956 1.677495 5.3790649 1.6386719 5.4882812 1.6386719 C 5.5973971 1.6386719 5.6892137 1.677495 5.765625 1.7539062 L 6.3222656 2.3105469 C 6.3986267 2.3869581 6.4375 2.4787245 6.4375 2.5878906 C 6.4375 2.6970568 6.3986769 2.7908265 6.3222656 2.8671875 L 5.1191406 4.0703125 L 6.3222656 5.2734375 C 6.3986769 5.3498488 6.4375 5.4416151 6.4375 5.5507812 C 6.4375 5.6599474 6.3986769 5.7537171 6.3222656 5.8300781 L 5.765625 6.3867188 C 5.689264 6.4630798 5.5973971 6.5 5.4882812 6.5 C 5.3790146 6.5 5.2853956 6.46313 5.2089844 6.3867188 L 4.0058594 5.1835938 L 2.8027344 6.3867188 C 2.7263231 6.4630798 2.6345568 6.5 2.5253906 6.5 C 2.4162747 6.5 2.322505 6.46313 2.2460938 6.3867188 L 1.6894531 5.8300781 C 1.6130419 5.7536669 1.5742188 5.6599474 1.5742188 5.5507812 C 1.5742188 5.4416151 1.6130921 5.3498488 1.6894531 5.2734375 L 2.8925781 4.0703125 L 1.6894531 2.8671875 C 1.6130419 2.7907762 1.5742188 2.6970568 1.5742188 2.5878906 C 1.5742188 2.4787245 1.6130921 2.3869079 1.6894531 2.3105469 L 2.2460938 1.7539062 C 2.322505 1.677495 2.4162747 1.6386719 2.5253906 1.6386719 z "
       transform="translate(7,1037.3622)"
       id="rect4153" />
    <g
       transform="translate(-6.2576356,-1.8901397)"
       id="layer1-6"
       inkscape:label="Capa 1">
      <g
         style="fill:#ffffff;fill-opacity:1"
         inkscape:label="Capa 1"
         id="layer1-7"
         transform="matrix(0.76531517,0,0,0.76531517,-419.49679,570.36)">
        <g
           id="g5548"
           sketch:type="MSShapeGroup"
           transform="matrix(0.14300539,0,0,0.14300539,554.04072,610.29161)"
           style="fill:#ffffff;fill-opacity:1">
          <g
             transform="matrix(5.8601665,0,0,5.8601665,-4437.2344,-1090.209)"
             id="layer1-9"
             inkscape:label="Layer 1"
             style="fill:#ffffff;fill-opacity:1">
            <g
               inkscape:label="Capa 1"
               id="layer1-2"
               transform="matrix(0.37907185,0,0,0.37907185,615.60988,-10.010196)"
               style="fill:#ffffff;fill-opacity:1">
              <g
                 style="fill:#ffffff;fill-opacity:1"
                 transform="matrix(0.20663505,0,0,0.20663505,416.2249,531.51293)"
                 sketch:type="MSLayerGroup"
                 id="remove11" />
            </g>
          </g>
        </g>
      </g>
    </g>
  </g>
</svg>

<svg xmlns="http://www.w3.org/2000/svg" viewBox="0 0 8 8"><path d="m1 0c-.554 0-1 .446-1 1v6c0 .554.446 1 1 1h6c.554 0 1-.446 1-1v-6c0-.554-.446-1-1-1h-6m1.525 1.639c.109 0 .201.039.277.115l1.203 1.203 1.203-1.203c.076-.076.17-.115.279-.115.109 0 .201.039.277.115l.557.557c.076.076.115.168.115.277 0 .109-.039.203-.115.279l-1.203 1.203 1.203 1.203c.076.076.115.168.115.277 0 .109-.039.203-.115.279l-.557.557c-.076.076-.168.113-.277.113-.109 0-.203-.037-.279-.113l-1.203-1.203-1.203 1.203c-.076.076-.168.113-.277.113-.109 0-.203-.037-.279-.113l-.557-.557c-.076-.076-.115-.17-.115-.279 0-.109.039-.201.115-.277l1.203-1.203-1.203-1.203c-.076-.076-.115-.17-.115-.279 0-.109.039-.201.115-.277l.557-.557c.076-.076.17-.115.279-.115" fill="#fff"/></svg>
